X:1
T:Title
%%score [ 1 2 3 4 ]
L:1/8
Q:1/4=200
M:2/2
K:C
V:1 treble nm="MusicXML Part"
V:2 treble-8 nm="MusicXML Part"
V:3 treble-8 nm="MusicXML Part"
V:4 bass nm="MusicXML Part"
V:1
 G3 A B3 c | d2 d2 B2 B2 | c3 B A2 G2 | G2 ^F2 G2 G2 :| c3 B A2 G2 | G2 ^F2 G2 G2 | F2 G2 A2 c2- | %7
w: Pan de mi- glio|cal- do cal- do|Don- ne mi- ea|chi ne vuo- le|Le man pre- stoal-|le guar- no- le|Su su su che|
w: Tal dol- cez- zain|vo- stro pet- to|Con pia- ce- ree|fe- staa- re- ti||||
w: |||||||
w: 2.Or su don- ne|com- pe- ra- ti|Del mio pan cal-|do de mi- glio|Vi fa- rà co-|lor ver- mi- glio|Se'l gu- sta- *|
w: Fa star tut- tein-|na- mo- ra- te|Fre- schee bel- le|co- meun zi- glio||||
w: |||||||
w: |||||||
w: |||||||
w: 3.Io so ben e|vi pro- met- to|Se'l mio pan voi|gu- sta- re- ti|Con af- fe- cto|voi di- re- te|Be- ne- det- *|
 c2 B2 c2 CD | E^FGE F2 G2- | G2 ^F2 G2 G2 | G3 A B3 c | d2 d2 B2 B2 | c3 B A2 G2 | G2 ^F2 G2 G2 | %14
w: * que- sto è *||* * cal- do.|Pan de mi- glio|cal- do cal- do|Don- ne mi- ea|chi ne vuo- le|
w: |||||||
w: |||||||
w: * * ti cu- *||* si cal- do.|||||
w: |||||||
w: |||||||
w: |||||||
w: |||||||
w: * * to che *||* l'è cal- do.|||||
 A4 A4 | D4 EF G2- | G2 ^FE F2 G2 | G8 |] G3 A B3 c | d2 d2 B2 B2 | c3 B A2 G2 | G2 ^F2 G2 G2 :| %22
w: Don- ne|mi- e a chi|* ne * vuo- *|le!|||||
w: ||||||||
w: ||||Che ch'il gu- sta|con tri- stez- za|E che sem- pre|vi- vein pe- ne|
w: ||||||||
w: ||||||||
w: ||||4.Tal vir- tu e|tal dol- cez- za|El mio pan in|sé re- tie- ne|
w: ||||5.Or su pre- sto|don- ne ca- re|Le man pre- sto|nel mio ce- sto|
w: ||||Co- men- za- teor-|maia gu- sta- re|Non l'a- bia- ti|già mo- le- sto|
w: ||||||||
 c3 B A2 G2 | G2 ^F2 G2 G2 | F2 G2 A2 c2- | c2 B2 c2 CD | E^FGE F2 G2- | %27
w: |||||
w: |||||
w: |||||
w: |||||
w: |||||
w: Cru- del pe- ne|non re- tie- ne|Men- tre'l gu- *|* * sta cu- *||
w: Se son trop- poa|Voi mo- les- to|Qui an- cor *|* * * mi *|* * * * * fa|
w: |||||
w: |||||
 G2 ^F2 G2"^continua  battuta/Takt  11" G2 || %28
w: |
w: |
w: |
w: |
w: |
w: * sì cal- do.|
w: * star cal- do|
w: |
w: |
V:2
 G2 d2 G3 A | B3 c d2 d2 | g3 g f2 d2 | d2 d2 d2 B2 :| g3 g f2 d2 | d2 d2 d2 B2 | d3 e f2 ef | %7
w: Pan de mi- glio|cal- do cal- do|Don- ne mi- ea|chi ne vuo- le|Le man pre- stoal-|le guar- no- le|Su su su che *|
w: Tal dol- cez- zain|vo- stro pet- to|Con pia- ce- ree|fe- staa- re- ti||||
w: |||||||
w: 2.Or * don- ne|com- pe- ra- ti|Del mio pan cal-|do de mi- glio|Vi fa- rà co-|lor ver- mi- glio|Se'l gu- sta- * *|
w: Fa star tut- tein-|na- mo- ra- te|Fre- schee bel- le|co- meun zi- glio||||
w: |||||||
w: |||||||
w: |||||||
w: 3.Io so ben e|vi pro- met- to|Se'l mio pan voi|gu- sta- re- ti|Con af- fe- cto|voi di- re- te|Be- ne- det- * *|
 g3 f ef g2 | c2 Bc d4- | d4 B2 B2 | G2 d2 G3 A | B3 c d2 d2 | g3 g f2 d2 | d2 d2 B2 B2 | d8- | %15
w: que- * * * *|sto è * *|* cal- do.|Pan de mi- glio|cal- do cal- do|Don- ne mi- ea|chi ne vuo- le|chi|
w: ||||||||
w: ||||||||
w: * * * * ti|cu- si * *|* cal- do.||||||
w: ||||||||
w: ||||||||
w: ||||||||
w: ||||||||
w: * * to * *|che * * l'è|* cal- do.||||||
 d4 g4 | d8 | B8 |] G2 d2 G3 A | B3 c d2 d2 | g3 g f2 d2 | d2 d2 d2 B2 :| g3 g f2 d2 | %23
w: * ne|vuo-|le!||||||
w: ||||||||
w: |||Che ch'il gu- sta|con tri- stez- za|E che sem- pre|vi- vein pe- ne||
w: ||||||||
w: ||||||||
w: |||4.Tal vir- tu e|tal dol- cez- za|El mio pan in|sé re- tie- ne|Cru- del pe- ne|
w: |||5.Or su pre- sto|don- ne ca- re|Le man pre- sto|nel mio ce- sto|Se son trop- poa|
w: |||Co- men- za- teor-|maia gu- sta- re|Non l'a- bia- ti|già mo- le- sto||
w: ||||||||
 d2 d2 d2 B2 | d3 e f2 ef | g3 f ef g2 | c2 Bc d4- | d4 B2 B2 || %28
w: |||||
w: |||||
w: |||||
w: |||||
w: |||||
w: non re- tie- ne|Men- tre'l gu- * *|* * sta * *|cu- * * sì|* cal- do.|
w: Voi mo- les- to|Qui an- cor * *|* * * * mi|fa star * *|* cal- do|
w: |||||
w: |||||
V:3
 [Bb]3 [cc'] [dd']2 [dd']2 | g2 ^f2 g2 g2 | e3 d c2 B2 | A2 A2 B2 G2 :| e3 d c2 B2 | A2 A2 B2 G2 | %6
w: Pan de mi- glio|cal- do cal- do|Don- ne mi- ea|chi ne vuo- le|Le man pre- stoal-|le guar- no- le|
w: Tal dol- cez- zain|vo- stro pet- to|Con pia- ce- ree|fe- staa- re- ti|||
w: ||||||
w: 2.Or su don- ne|com- pe- ra- ti|Del mio pan cal-|do de mi- glio|Vi fa- rà co-|lor ver- mi- glio|
w: Fa star tut- tein-|na- mo- ra- te|Fre- schee bel- le|co- meun zi- glio|||
w: ||||||
w: ||||||
w: ||||||
w: 3.Io so ben e|vi pro- met- to|Se'l mio pan voi|gu- sta- re- ti|Con af- fe- cto|voi di- re- te|
 A2 B2 c4 | d4 cdef | g2 G2 A2 G2 | A4 G2 G2 | [Bb]3 [cc'] [dd']2 [dd']2 | g2 ^f2 g2 g2 | %12
w: Su su su|che que- * * *|* sto è *|* cal- do.|Pan de mi- glio|cal- do cal- do|
w: ||||||
w: ||||||
w: Se'l gu- sta-|ti cu- * * *||si cal- do.|||
w: ||||||
w: ||||||
w: ||||||
w: ||||||
w: Be- ne- det-|to che * * *||* cal- do.|||
 e3 d c2 B2 | A2 A2 G2 g2- | g2 fe fedc | B4 c3 B | A2 G2 A4 | G8 |] [Bb]3 [cc'] [dd']2 [dd']2 | %19
w: Don- ne mi- ea|chi ne vuo- le|* Don- * * * * *|* ne a|chi ne vuo-|le!||
w: |||||||
w: ||||||Che ch'il gu- sta|
w: |||||||
w: |||||||
w: ||||||4.Tal vir- tu e|
w: ||||||5.Or su pre- sto|
w: ||||||Co- men- za- teor-|
w: |||||||
 g2 ^f2 g2 g2 | e3 d c2 B2 | A2 A2 B2 G2 :| e3 d c2 B2 | A2 A2 B2 G2 | A2 B2 c4 | d4 cdef | %26
w: |||||||
w: |||||||
w: con tri- stez- za|E che sem- pre|vi- vein pe- ne|||||
w: |||||||
w: |||||||
w: tal dol- cez- za|El mio pan in|sé re- tie- ne|Cru- del pe- ne|non re- tie- ne|Men- tre'l gu-|* sta * * *|
w: don- ne ca- re|Le man pre- sto|nel mio ce- sto|Se son trop- poa|Voi mo- les- to|Qui an- cor|mi fa * * *|
w: maia gu- sta- re|Non l'a- bia- ti|già mo- le- sto|||||
w: |||||||
 g2 G2 A2 G2 | A4 G2 G2 || %28
w: ||
w: ||
w: ||
w: ||
w: ||
w: * * cu- *|sì cal- do.|
w: |star cal- do|
w: ||
w: ||
V:4
 z2 G,3 A, B,2- | B,C D2 G,2 G,2 | C,2 C,2 F,2 G,2 | D,2 D,2 G,2 G,2 :| C,2 C,2 F,2 G,2 | %5
w: Pan de mi-|* * glio cal- do|Don- * ne a|chi ne vuo- le|Le * man al-|
w: in * vo-|* * stro pet- to|Con pia- ce- ree|fe- staa- re- ti||
w: |||||
w: |||||
w: 2.Or su com-|* * pe- ra- ti|Del * pan cal-|do de mi- glio|Vi fa- rà co-|
w: tut- tein- na-|* * mo- ra- te|Fre- schee bel- le|co- meun zi- glio||
w: |||||
w: |||||
w: |||||
w: e * vi|* * pro- met- to|Se'l mio pan voi|gu- sta- re- ti|Con af- fe- cto|
 D,2 D,2 G,2 G,2 | D,2 G,2 F,2 A,2 | G,2 G,2 z2 C,2- | C,D, E,2 D,4- | D,4 D2 D2 | z2 G,3 A, B,2- | %11
w: le guar- no- le|Su su su che|que- sto è||* cal- do.|Pan de mi-|
w: ||||||
w: ||||||
w: ||||||
w: lor ver- mi- glio|Se'l gu- sta- *|* ti cu-|* * * si|* cal- do.||
w: ||||||
w: ||||||
w: ||||||
w: ||||||
w: voi di- re- te|Be- ne- det- *|* to che|* * * l'è|* cal- do.||
 B,C D2 G,2 G,2 | C,4 F,2 G,2 | D,2 D,2 G,2 G,2 | D,4 D,4 | G,4 C,4 | D,4 D,4 | D8 |] %18
w: * * glio cal- do|Don- ne a|chi ne vuo- le|Don- ne|a chi|ne vuo-|le!|
w: |||||||
w: |||||||
w: |||||||
w: |||||||
w: |||||||
w: |||||||
w: |||||||
w: |||||||
w: |||||||
 z2 G,3 A, B,2- | B,C D2 G,2 G,2 | C,2 C,2 F,2 G,2 | D,2 D,2 G,2 G,2 :| C,2 C,2 F,2 G,2 | %23
w: |||||
w: |||||
w: e * tal|* * dol- cez- za|* mio pan en|||
w: gu- sta con|* * tri- stez- za|E * sem- pre|vi- vein pe- ne||
w: |||||
w: |||||
w: ||El * * *|sé re- tie- ne|Cru- del pe- ne|
w: 5.Or su don-|* * ne ca- re|Le man pre- sto|nel mio ce- sto|Se son trop- poa|
w: or- * mai|* * gu- sta- re|Non l'a- bia- ti|già mo- le- sto||
w: |||||
 D,2 D,2 G,2 G,2 | D,2 G,2 F,2 A,2 | G,2 G,2 z2 C,2- | C,D, E,2 D,4- | D,4 D2 D2 || %28
w: |||||
w: |||||
w: |||||
w: |||||
w: |||||
w: |||||
w: non re- tie- ne|Men- * tre'l *|gu- sta cu-|* * * sì|* cal- do.|
w: Voi mo- les- to|Qui an- cor *|* mi fa|* * * star|* cal- do|
w: |||||
w: |||||

